X:1
T: Miss Angus Botriphnie's Reel
C:William Marshall
R:Reel
Q: 232
K:Bb
M:4/4
L:1/8
|:D|B,2 B2 Bd fd|cB AG FE DC|B,2 B2 Bd fd|c=B c=E F2 FD|
B,2 B2 Bd fd|cB AG FE DC|B,2 B2 Bd fd|c=B c=E F2 FB|
AF FB AF Fd|eG cB AF FB|AF FB AF Fd|eG cB A2 GF|
AF FB AF Fd|eG cB AG FE|DE FG AB cd|eg fA B2 B:|
